%
(base2)
(T1  D=3.175 CR=0 - ZMIN=-18 - flat end mill)
G90 G94
G17
G21
G28 G91 Z0
G90

(2D Pocket1)
M9
T1 M6
S10000 M3
G54
G0 X-78.464 Y-93.757
Z15
Z5
G1 Z2.817 F100
X-78.486 Y-93.764 Z2.698 F33.3
X-78.547 Y-93.788 Z2.597
X-78.638 Y-93.829 Z2.527
X-78.742 Y-93.885 Z2.5
G3 X-77.21 Y-96.483 Z2.335 I0.766 J-1.299
X-78.742 Y-93.885 Z2.169 I-0.766 J1.299
X-77.21 Y-96.483 Z2.004 I0.766 J-1.299
X-78.742 Y-93.885 Z1.838 I-0.766 J1.299
X-77.21 Y-96.483 Z1.673 I0.766 J-1.299
X-78.742 Y-93.885 Z1.507 I-0.766 J1.299
X-77.21 Y-96.483 Z1.342 I0.766 J-1.299
X-78.742 Y-93.885 Z1.176 I-0.766 J1.299
X-77.21 Y-96.483 Z1.011 I0.766 J-1.299
X-78.742 Y-93.885 Z0.845 I-0.766 J1.299
X-77.21 Y-96.483 Z0.68 I0.766 J-1.299
X-78.742 Y-93.885 Z0.515 I-0.766 J1.299
X-77.21 Y-96.483 Z0.349 I0.766 J-1.299
X-78.742 Y-93.885 Z0.184 I-0.766 J1.299
X-77.21 Y-96.483 Z0.018 I0.766 J-1.299
X-78.742 Y-93.885 Z-0.147 I-0.766 J1.299
X-77.21 Y-96.483 Z-0.313 I0.766 J-1.299
X-78.742 Y-93.885 Z-0.478 I-0.766 J1.299
X-77.21 Y-96.483 Z-0.644 I0.766 J-1.299
X-78.742 Y-93.885 Z-0.809 I-0.766 J1.299
X-77.21 Y-96.483 Z-0.974 I0.766 J-1.299
X-78.742 Y-93.885 Z-1.14 I-0.766 J1.299
X-77.21 Y-96.483 Z-1.305 I0.766 J-1.299
X-78.742 Y-93.885 Z-1.471 I-0.766 J1.299
X-77.21 Y-96.483 Z-1.636 I0.766 J-1.299
X-78.742 Y-93.885 Z-1.802 I-0.766 J1.299
X-77.21 Y-96.483 Z-1.967 I0.766 J-1.299
X-78.742 Y-93.885 Z-2.133 I-0.766 J1.299
X-77.21 Y-96.483 Z-2.298 I0.766 J-1.299
X-78.742 Y-93.885 Z-2.464 I-0.766 J1.299
X-77.21 Y-96.483 Z-2.629 I0.766 J-1.299
X-78.742 Y-93.885 Z-2.794 I-0.766 J1.299
X-77.21 Y-96.483 Z-2.96 I0.766 J-1.299
X-78.742 Y-93.885 Z-3.125 I-0.766 J1.299
X-77.21 Y-96.483 Z-3.291 I0.766 J-1.299
X-78.742 Y-93.885 Z-3.456 I-0.766 J1.299
X-77.21 Y-96.483 Z-3.622 I0.766 J-1.299
X-78.742 Y-93.885 Z-3.787 I-0.766 J1.299
X-77.21 Y-96.483 Z-3.953 I0.766 J-1.299
X-78.742 Y-93.885 Z-4.118 I-0.766 J1.299
X-77.21 Y-96.483 Z-4.284 I0.766 J-1.299
X-78.742 Y-93.885 Z-4.449 I-0.766 J1.299
X-77.21 Y-96.483 Z-4.614 I0.766 J-1.299
X-78.742 Y-93.885 Z-4.78 I-0.766 J1.299
X-77.21 Y-96.483 Z-4.945 I0.766 J-1.299
X-76.468 Y-95.184 Z-5 I-0.766 J1.299
G1 Y-54.598 F200
G3 X-76.787 Y-54.279 I-0.319
G1 X-77.228
G3 X-77.543 Y-54.594 J-0.315
G1 Y-95.402
G3 X-77.224 Y-95.721 I0.319
G1 X-76.787
G3 X-76.468 Y-95.402 J0.319
G1 Y-95.184
G2 X-75.917 Y-94.358 I0.895
G3 X-75.366 Y-93.531 I-0.344 J0.826
G1 Y-53.496
G3 X-75.686 Y-53.177 I-0.319
G1 X-78.329
G3 X-78.645 Y-53.492 J-0.315
G1 Y-96.504
G3 X-78.325 Y-96.823 I0.319
G1 X-75.686
G3 X-75.366 Y-96.504 J0.319
G1 Y-93.531
G2 X-74.095 Y-91.625 I2.066
G3 X-72.824 Y-89.718 I-0.794 J1.907
G1 Y-50.954
G3 X-73.143 Y-50.635 I-0.319
G1 X-80.871
G3 X-81.187 Y-50.95 J-0.315
G1 Y-99.046
G3 X-80.867 Y-99.365 I0.319
G1 X-73.143
G3 X-72.824 Y-99.046 J0.319
G1 Y-89.718
G2 X-71.55 Y-87.807 I2.07
G3 X-70.277 Y-85.897 I-0.796 J1.91
G1 Y-48.088
X-83.734
Y-101.912
X-70.277
Y-85.897
X-70.282 Y-85.837 Z-4.988 F100
X-70.3 Y-85.778 Z-4.976
X-70.323 Y-85.732 Z-4.941
X-70.353 Y-85.691 Z-4.907
X-70.403 Y-85.644 Z-4.804
X-70.423 Y-85.63 Z-4.683
G0 Z15

(2D Contour1)
X-60.317 Y-7.46
Z15
Z5
G1 Z2 F33.3
Z-17.683
G19 G2 Y-7.778 Z-18 J-0.318
G1 Y-8.095 F200
G17 G3 X-60 Y-8.413 I0.317
G1 X-10 F300
G2 X-8.413 Y-10 J-1.587
G1 Y-140
G2 X-10 Y-141.587 I-1.587
G1 X-110
G2 X-111.588 Y-140 J1.587
G1 Y-10
G2 X-110 Y-8.413 I1.588
G1 X-60
G3 X-59.682 Y-8.095 J0.318 F200
G1 Y-7.778
G19 G3 Y-7.46 Z-17.683 K0.317
G0 Z15
G17
G28 G91 Z0
G90
G28 G91 X0 Y0
G90
M30
%
