%
(support rlt)
(T3  D=4 CR=0 - ZMIN=-18 - flat end mill)
G90 G94
G17
G21
G28 G91 Z0
G90

(2D Contour2)
M9
T3 M6
S10000 M3
G54
G0 X-29.7 Y-25.6
Z15
Z5
G1 Z2 F33.3
Z-2.6
G18 G2 X-29.3 Z-3 I0.4
G1 X-28.9 F100
G17 G3 X-28.5 Y-25.2 J0.4
X-46.5 I-9
X-28.5 I9
X-28.9 Y-24.8 I-0.4
G1 X-29.3
G18 G3 X-29.7 Z-2.6 K0.4
G1 Y-25.6
Z-5.6 F33.3
G2 X-29.3 Z-6 I0.4
G1 X-28.9 F100
G17 G3 X-28.5 Y-25.2 J0.4
X-46.5 I-9
X-28.5 I9
X-28.9 Y-24.8 I-0.4
G1 X-29.3
G18 G3 X-29.7 Z-5.6 K0.4
G1 Y-25.6
Z-6.6 F33.3
G2 X-29.3 Z-7 I0.4
G1 X-28.9 F100
G17 G3 X-28.5 Y-25.2 J0.4
X-46.5 I-9
X-28.5 I9
X-28.9 Y-24.8 I-0.4
G1 X-29.3
G18 G3 X-29.7 Z-6.6 K0.4
G0 Z15
X-33.091 Y-25.6
Z5
G1 Z2 F33.3
Z-2.6
G2 X-32.691 Z-3 I0.4
G1 X-32.291 F100
G17 G3 X-31.891 Y-25.2 J0.4
X-43.109 I-5.609
X-31.891 I5.609
X-32.291 Y-24.8 I-0.4
G1 X-32.691
G18 G3 X-33.091 Z-2.6 K0.4
G1 Y-25.6
Z-5.6 F33.3
G2 X-32.691 Z-6 I0.4
G1 X-32.291 F100
G17 G3 X-31.891 Y-25.2 J0.4
X-43.109 I-5.609
X-31.891 I5.609
X-32.291 Y-24.8 I-0.4
G1 X-32.691
G18 G3 X-33.091 Z-5.6 K0.4
G1 Y-25.6
Z-8.6 F33.3
G2 X-32.691 Z-9 I0.4
G1 X-32.291 F100
G17 G3 X-31.891 Y-25.2 J0.4
X-43.109 I-5.609
X-31.891 I5.609
X-32.291 Y-24.8 I-0.4
G1 X-32.691
G18 G3 X-33.091 Z-8.6 K0.4
G1 Y-25.6
Z-11.6 F33.3
G2 X-32.691 Z-12 I0.4
G1 X-32.291 F100
G17 G3 X-31.891 Y-25.2 J0.4
X-43.109 I-5.609
X-31.891 I5.609
X-32.291 Y-24.8 I-0.4
G1 X-32.691
G18 G3 X-33.091 Z-11.6 K0.4
G1 Y-25.6
Z-14.6 F33.3
G2 X-32.691 Z-15 I0.4
G1 X-32.291 F100
G17 G3 X-31.891 Y-25.2 J0.4
X-43.109 I-5.609
X-31.891 I5.609
X-32.291 Y-24.8 I-0.4
G1 X-32.691
G18 G3 X-33.091 Z-14.6 K0.4
G1 Y-25.6
Z-17.6 F33.3
G2 X-32.691 Z-18 I0.4
G1 X-32.291 F100
G17 G3 X-31.891 Y-25.2 J0.4
X-43.109 I-5.609
X-31.891 I5.609
X-32.291 Y-24.8 I-0.4
G1 X-32.691
G18 G3 X-33.091 Z-17.6 K0.4
G0 Z15
G17

(Slot1)
G0 X-47.534 Y-16.78
Z15
Z5
G1 Z2.5 F100
G3 Y-33.619 Z1.879 I10.034 J-8.419 F33.3
G2 Y-16.78 Z1.258 I10.034 J8.419
G3 Y-33.619 Z0.636 I10.034 J-8.419
G2 Y-16.78 Z0.015 I10.034 J8.419
G3 Y-33.619 Z-0.606 I10.034 J-8.419
G2 Y-16.78 Z-1.227 I10.034 J8.419
G3 Y-33.619 Z-1.848 I10.034 J-8.419
G2 Y-16.78 Z-2.47 I10.034 J8.419
G3 Y-33.619 Z-3.091 I10.034 J-8.419
G2 Y-16.78 Z-3.712 I10.034 J8.419
G3 Y-33.619 Z-4.333 I10.034 J-8.419
G2 Y-16.78 Z-4.955 I10.034 J8.419
G3 Y-33.619 Z-5.576 I10.034 J-8.419
G2 Y-16.78 Z-6.197 I10.034 J8.419
G3 Y-33.619 Z-6.818 I10.034 J-8.419
G2 Y-16.78 Z-7.439 I10.034 J8.419
G3 Y-33.619 Z-8.061 I10.034 J-8.419
G2 Y-16.78 Z-8.682 I10.034 J8.419
G3 Y-33.619 Z-9.303 I10.034 J-8.419
G2 Y-16.78 Z-9.924 I10.034 J8.419
G3 Y-33.619 Z-10.545 I10.034 J-8.419
G2 Y-16.78 Z-11.167 I10.034 J8.419
G3 Y-33.619 Z-11.788 I10.034 J-8.419
G2 Y-16.78 Z-12.409 I10.034 J8.419
G3 Y-33.619 Z-13.03 I10.034 J-8.419
G2 Y-16.78 Z-13.652 I10.034 J8.419
G3 Y-33.619 Z-14.273 I10.034 J-8.419
G2 Y-16.78 Z-14.894 I10.034 J8.419
G3 Y-33.619 Z-15.515 I10.034 J-8.419
G2 Y-16.78 Z-16.136 I10.034 J8.419
G3 Y-33.619 Z-16.758 I10.034 J-8.419
G2 Y-16.78 Z-17.379 I10.034 J8.419
G3 Y-33.619 Z-18 I10.034 J-8.419
G2 Y-16.78 I10.034 J8.419 F100
G0 Z15

(2D Contour3)
X-9.6 Y-48.2
Z15
Z5
G1 Z2 F33.3
Z-2.6
G19 G3 Y-47.8 Z-3 J0.4
G1 Y-47.4 F100
G17 G3 X-10 Y-47 I-0.4
G1 X-65
G2 X-67 Y-45 J2
G1 Y-10
G2 X-65 Y-8 I2
G1 X-41.575
G2 X-39.945 Y-8.841 J-2
G3 X-37.5 Y-10.102 I2.445 J1.739
G2 X-22.491 Y-23.565 J-15.098
G3 X-19.509 Y-26.24 I2.982 J0.325
G1 X-10
G2 X-8 Y-28.24 J-2
G1 Y-45
G2 X-10 Y-47 I-2
G3 X-10.4 Y-47.4 J-0.4
G1 Y-47.8
G19 G2 Y-48.2 Z-2.6 K0.4
G1 X-9.6
Z-5.6 F33.3
G3 Y-47.8 Z-6 J0.4
G1 Y-47.4 F100
G17 G3 X-10 Y-47 I-0.4
G1 X-65
G2 X-67 Y-45 J2
G1 Y-10
G2 X-65 Y-8 I2
G1 X-41.575
G2 X-39.945 Y-8.841 J-2
G3 X-37.5 Y-10.102 I2.445 J1.739
G2 X-22.491 Y-23.565 J-15.098
G3 X-19.509 Y-26.24 I2.982 J0.325
G1 X-10
G2 X-8 Y-28.24 J-2
G1 Y-45
G2 X-10 Y-47 I-2
G3 X-10.4 Y-47.4 J-0.4
G1 Y-47.8
G19 G2 Y-48.2 Z-5.6 K0.4
G1 X-9.6
Z-8.6 F33.3
G3 Y-47.8 Z-9 J0.4
G1 Y-47.4 F100
G17 G3 X-10 Y-47 I-0.4
G1 X-65
G2 X-67 Y-45 J2
G1 Y-10
G2 X-65 Y-8 I2
G1 X-41.575
G2 X-39.945 Y-8.841 J-2
G3 X-37.5 Y-10.102 I2.445 J1.739
G2 X-22.491 Y-23.565 J-15.098
G3 X-19.509 Y-26.24 I2.982 J0.325
G1 X-10
G2 X-8 Y-28.24 J-2
G1 Y-45
G2 X-10 Y-47 I-2
G3 X-10.4 Y-47.4 J-0.4
G1 Y-47.8
G19 G2 Y-48.2 Z-8.6 K0.4
G1 X-9.6
Z-11.6 F33.3
G3 Y-47.8 Z-12 J0.4
G1 Y-47.4 F100
G17 G3 X-10 Y-47 I-0.4
G1 X-65
G2 X-67 Y-45 J2
G1 Y-10
G2 X-65 Y-8 I2
G1 X-41.575
G2 X-39.945 Y-8.841 J-2
G3 X-37.5 Y-10.102 I2.445 J1.739
G2 X-22.491 Y-23.565 J-15.098
G3 X-19.509 Y-26.24 I2.982 J0.325
G1 X-10
G2 X-8 Y-28.24 J-2
G1 Y-45
G2 X-10 Y-47 I-2
G3 X-10.4 Y-47.4 J-0.4
G1 Y-47.8
G19 G2 Y-48.2 Z-11.6 K0.4
G1 X-9.6
Z-14.6 F33.3
G3 Y-47.8 Z-15 J0.4
G1 Y-47.4 F100
G17 G3 X-10 Y-47 I-0.4
G1 X-65
G2 X-67 Y-45 J2
G1 Y-10
G2 X-65 Y-8 I2
G1 X-41.575
G2 X-39.945 Y-8.841 J-2
G3 X-37.5 Y-10.102 I2.445 J1.739
G2 X-22.491 Y-23.565 J-15.098
G3 X-19.509 Y-26.24 I2.982 J0.325
G1 X-10
G2 X-8 Y-28.24 J-2
G1 Y-45
G2 X-10 Y-47 I-2
G3 X-10.4 Y-47.4 J-0.4
G1 Y-47.8
G19 G2 Y-48.2 Z-14.6 K0.4
G1 X-9.6
Z-17.6 F33.3
G3 Y-47.8 Z-18 J0.4
G1 Y-47.4 F100
G17 G3 X-10 Y-47 I-0.4
G1 X-65
G2 X-67 Y-45 J2
G1 Y-10
G2 X-65 Y-8 I2
G1 X-41.575
G2 X-39.945 Y-8.841 J-2
G3 X-37.5 Y-10.102 I2.445 J1.739
G2 X-22.491 Y-23.565 J-15.098
G3 X-19.509 Y-26.24 I2.982 J0.325
G1 X-10
G2 X-8 Y-28.24 J-2
G1 Y-45
G2 X-10 Y-47 I-2
G3 X-10.4 Y-47.4 J-0.4
G1 Y-47.8
G19 G2 Y-48.2 Z-17.6 K0.4
G0 Z15
G17
G28 G91 Z0
G90
G28 G91 X0 Y0
G90
M30
%
